img/lap-img.svg

<svg width="43" height="31" viewBox="0 0 43 31" fill="none" xmlns="http://www.w3.org/2000/svg">
<path d="M3.30358 1.81317C3.30358 1.81317 39.891 1.4487 39.891 1.81317V27.0318H26.8447L26.3261 28.1549H16.9978L16.3483 27.1253H3.29736L3.30358 1.81317Z" stroke="#1A2578" stroke-width="1.5" stroke-linecap="round" stroke-linejoin="round"/>
<path d="M37.483 4.16986H5.66797V24.7205H37.483V4.16986Z" stroke="#BF0830" stroke-width="1.5" stroke-linecap="round" stroke-linejoin="round"/>
<path d="M3.30364 27.1269H1V30.2H42V27.1269H39.891" stroke="#1A2578" stroke-width="1.5" stroke-linecap="round" stroke-linejoin="round"/>
</svg>

<svg width="43" height="31" fill="none" xmlns="http://www.w3.org/2000/svg"><path d="M3.304 1.813s36.587-.364 36.587 0v25.219H26.845l-.519 1.123h-9.328l-.65-1.03H3.298l.006-25.312z" stroke="#1A2578" stroke-width="1.5" stroke-linecap="round" stroke-linejoin="round"/><path d="M37.483 4.17H5.668v20.55h31.815V4.17z" stroke="#BF0830" stroke-width="1.5" stroke-linecap="round" stroke-linejoin="round"/><path d="M3.304 27.127H1V30.2h41v-3.073h-2.109" stroke="#1A2578" stroke-width="1.5" stroke-linecap="round" stroke-linejoin="round"/></svg>
